!!!COM: Beethoven, Ludwig van
!!!CDT: 1770///-1827///
!!!OTL: Piano Sonata no. 1, mvmt. 3
!!!OMD: Minuet: Allegretto
!!!OPS: Op. 2
!!!ONM: No. 1
!!!OMV: No. 3
!!!AGN: Minuet and Trio
**kern	**dynam	**kern	**dynam
*thru	*thru	*thru	*thru
*Ipiano	*Ipiano	*Ipiano	*Ipiano
!! Minuetto: Allegretto
*>D	*>D	*>D	*>D
4r	.	4c/	p
=51	=51	=51	=51
*^	*	*	*
(2.c/	[2.C\	.	(8e/L	.
.	.	.	8d/	.
.	.	.	8e/	.
.	.	.	8c/	.
.	.	.	8d/	.
.	.	.	8e/J	.
=52	=52	=52	=52	=52
2.Bn/	[2.C\_]	.	8f/L	.
.	.	.	8e/	.
.	.	.	8f/	.
.	.	.	8d/	.
.	.	.	8e/	.
.	.	.	8f/J	.
=53	=53	=53	=53	=53
2.B-X/	[2.C\_]	.	8g/L	.
.	.	.	8f#/	.
.	.	.	8g/	.
.	.	.	8e/	.
.	.	.	8f/	.
.	.	.	8g/J)	.
=54	=54	=54	=54	=54
4A/)	4C\]	.	(8a\L	.
.	.	.	8f\	.
4r	4r	.	8a\	.
.	.	.	8cc\	.
4r	4r	.	8ff\	.
.	.	.	8aa\J)	.
*v	*v	*	*	*
*clefG2	*clefG2	*	*
=55	=55	=55	=55
(8e/L	.	2.cc\ (2.ccc\	.
8d/	.	.	.
8e/	.	.	.
8c/	.	.	.
8d/	.	.	.
8e/J	.	.	.
=56	=56	=56	=56
8f/L	.	2.bn\ 2.bbn\	.
8e/	.	.	.
8f/	.	.	.
8d/	.	.	.
8e/	.	.	.
8f/J	.	.	.
=57	=57	=57	=57
8g/L	.	4b-X\ 4bb-X\)	.
8f/	.	.	.
8g/	.	8r	.
8e/	.	(8g/L	.
8f/	.	8a/	.
8g/J	.	8b-/J	.
=58	=58	=58	=58
8a/L	.	8cc\L	.
8g/	.	8b-\	.
8a/	.	8cc\	.
8f/	.	8a\	.
8g/	.	8b-\	.
8a/J)	.	8cc\J)	.
=59	=59	=59	=59
*	*	*^	*
(8b-/L	.	(4r	(8dd\L	.
8a/	.	.	8cc\	.
8b-/	.	8r	8dd\	.
8g/	.	8ee/L	8b-\	.
8a/	.	8ff/	8cc\	.
8b-/J)	.	8gg/J)	8dd\J	.
*	*	*v	*v	*
=60	=60	=60	=60
(8cc\L	.	8ee\ (8aa\L	.
8b-\	.	8dd\ 8gg\	.
8cc\	.	8ee\ 8aa\	.
8a\	.	8cc\ 8ff\	.
8b-\	.	8dd\ 8gg\	.
8cc\J)	.	8ee\ 8aa\J)	.
=61	=61	=61	=61
(8dd\L	.	8ff\ (8bb-\L	ff
8cc\	.	8ee\ 8aa\	.
8b-\	.	8dd\ 8gg\	.
8cc\	.	8ee\ 8aa\	.
8b-\	.	8dd\ 8gg\	.
8a\J	.	8cc\ 8ff\J	.
=62	=62	=62	=62
8g/L	.	8b-\ 8ee\L	.
8a/	.	8cc\ 8ff\	.
8g/	.	8b-\ 8ee\	.
8f/	.	8a\ 8dd\	.
8e/	.	8g\ 8cc\	.
8f/J)	.	8a\ 8dd\J)	.
*clefF4	*clefF4	*	*
=63	=63	=63	=63
(2.e\	.	(2.g/ 2.cc/	p
=64	=64	=64	=64
2.d\	.	2.f/ 2.bn/	.
=65	=65	=65	=65
2.c\)	.	2.e/) 2.b-X/	pp
=66	=66	=66	=66
(4F\	.	(8a/L	p
.	.	8g/	.
4A\	.	8a/	.
.	.	8f/	.
4c\	.	8g/	.
.	.	8a/J	.
=67	=67	=67	=67
4d\	.	8b-/L	.
.	.	8a/	.
4G\	.	8b-/	.
.	.	8g/	.
4F\	.	8a/	.
.	.	8b/J	.
=68	=68	=68	=68
4E\	.	8cc\L	.
.	.	8b\	.
4G\	.	8cc\	.
.	.	8dd\	.
4c\	.	8cc\	.
.	.	8b-\J	.
=69	=69	=69	=69
4F\	.	8a/L	.
.	.	8g/	.
4A\	.	8a/	.
.	.	8b-/	.
4c\)	.	8a/	.
.	.	8f/J)	.
=70	=70	=70	=70
(8AA/L	.	(4a\	.
8GG#/	.	.	.
8AA/	.	4cc\	.
8FF/	.	.	.
8GG/	.	4ff\	.
8AA/J	.	.	.
=71	=71	=71	=71
8BB-/L	.	4dd\	.
8AA/	.	.	.
8BB-/	.	4g/	.
8GG/	.	.	.
8AA/	.	4f/	.
8BB/J	.	.	.
=72	=72	=72	=72
8C/L	.	4e/	.
8BB/	.	.	.
8C/	.	4g/	.
8BB-/	.	.	.
8AA/	.	4cc/	.
8GG/J	.	.	.
=73	=73	=73	=73
4FF/)	.	4f/)	.
4F\	.	4r	.
